!!!COM: Bach, Johann Sebastian
!!!OTL: 19. Ich hab' mein' Sach' Gott heimgestellt
!!!ONM: No. 19
!!!OCL: Erk
!!!SCA: BWV 351
!!!YOE: Riemenschneider, Albert
!!!OPR: 371 Harmonized Chorales and 69 Chorale Melodies with Figured Bass
!!!OPT: Bach Chorale Harmonizations
**harm	**root	**kern	**kern	**kern	**kern
!	!	!bass	!tenor	!alto	!sprno
*Iorgan	*Iorgan	*Iorgan	*Iorgan	*Iorgan	*Iorgan
*k[b-e-a-d-]	*k[b-e-a-d-]	*k[b-e-a-d-]	*k[b-e-a-d-]	*k[b-e-a-d-]	*k[b-e-a-d-]
*b-:	*b-:	*b-:	*b-:	*b-:	*b-:
*met(c)	*met(c)	*met(c)	*met(c)	*met(c)	*met(c)
*M4/4	*M4/4	*M4/4	*M4/4	*M4/4	*M4/4
*MM60	*MM60	*MM60	*MM60	*MM60	*MM60
i	4GG	4B-	4d-	4f	4b-
=1	=1	=1	=1	=1	=1
i	4GG	8B-	8d-	4f	4b-
.	.	8A-	8c	.	.
vii/V	4CC#	4G-	4B-	8f	4b-
.	.	.	.	8e	.
V	4DD	8F	4c	4f	4a
.	.	8E-	.	.	.
ib	4GG	8D-	4f	8b-	4dd-
.	.	8BB-	.	8a-	.
=2	=2	=2	=2	=2	=2
iib	4AA	4E-	4e-	8g-	4cc
.	.	.	.	8f	.
viioD7/V	4CC#	4E	8d-	4g	4b-
.	.	.	8c	.	.
V;	4DD;	4F;	4c;	4f;	4a;
V	4DD	8F	4c	4f	4a
.	.	[8G-	.	.	.
=3	=3	=3	=3	=3	=3
V7	4DD	8G-]	4c	4e-	4a
.	.	[8F	.	.	.
V	4DD	8F]	4c	4f	4a
.	.	[8E-	.	.	.
Ib	4GG	8E-]	4B-	4f	4b-
.	.	8D	.	.	.
IV	4CC	8E-	4B-	4e-	4g
.	.	8D-	.	.	.
=4	=4	=4	=4	=4	=4
viioD7b	4FF#	4C	8c	8e-	4a
.	.	.	8e-	8g-	.
V7	4DD	4F	8e-	4f	4a
.	.	.	16d-	.	.
.	.	.	16c	.	.
I;	4GG;	4BB-;	4d-;	4f;	4b-;
-VII	4FF	4A-	4e-	4a-	4cc
=5	=5	=5	=5	=5	=5
!!linebreak: 2
-VII	4FF	8A-	4e-	4a-	4cc
.	.	8B-	.	.	.
IVb	4CC	8A-	4e-	4b-	4ee-
.	.	8G	.	.	.
-VII	4FF	8A-	4e-	4a-	4cc
.	.	[8G-	.	.	.
IIIb	4BB-	8G-]	4d-	4a-	4a-
.	.	8F	.	.	.
=6	=6	=6	=6	=6	=6
VI	4EE-	8G-	4d-	8g-	4b-
.	.	8G	.	8f	.
-VII	8FF	8A-	8c	8e-	4cc
viioD7	8FF#	8A	8e-	8g-	.
i;	4GG;	4B-;	4d-;	4f;	4dd-;
i	4GG	4BB-	4f	[4b-	4dd-
=7	=7	=7	=7	=7	=7
V	4DD	4F	4.f	8b-]	4cc
.	.	.	.	8a	.
ivb	4CC	4G-	.	8b-	4b-
.	.	.	8e-	8B-	.
V;	4DD;	4F;	4c;	4f;	4a;
V	4DD	4F	4c	4f	4a
=8	=8	=8	=8	=8	=8
viib	4FF#	8C	4c	8e-	4a
.	.	8D-	.	8f	.
viioD7c	4FF#	4E-	4c	8g-	4a
.	.	.	.	8f	.
ib	4GG	8D-	[4B-	4f	4b-
.	.	8D	.	.	.
IV	8CC	8E-	16B-]	4g	4g
.	.	.	16c	.	.
viioD7/V	8CC#	8E	8d-y	.	.
=9	=9	=9	=9	=9	=9
V	4DD	4F	8c	4f	4a
.	.	.	8B-	.	.
V	4DD	4FF	16c	4f	4a
.	.	.	16d-	.	.
.	.	.	8e-	.	.
I;	4GG;	4BB-;	8e-	4f;	4b-;
.	.	.	8d;	.	.
==	==	==	==	==	==
*-	*-	*-	*-	*-	*-
!!!CDT: 1685/3//-1750/7/28
!!!OCY: Deutschland
!!!AGN: chorale
!!!AST: Baroque
!!!AIN: vox
!!!YOY: 1941
!!!PPP: New York; London
!!!PPR: G. Schirmer
!!!ENC: David Huron
!!!EED: David Huron
!!!YEN: United States of America
!!!YER: 1992
!!!YEC: Copyright 1992 David Huron
!!!YEM: Rights to all derivative electronic formats reserved.
!!!YER: March 20, 1996
!!!AMT: simple quadruple
!!!EEV: 1.1
!!chor2scor: -l 2 -s 0.6 -o %b.pmx
